X: 42
T:Esther`s Reel
D:Buttons &Bows; Solas
M:C
L:1/8
K:EMinor
EFGA BAB^c| dDF/E/D AFDF| EFGA BAGF|1 EBAF GEED:|2 EBAF GE E2 ||
~g3 e fe d2| efga gfef| eB ~B2 dBAF|1 GBAF GE E2:|2 GBAF GEED ||
